X:498
T:Whiskey Before Breakfast
C: arranged by Lee Marcus
N:Transcribed by Lee Marcus
R:bluegrass
L:1/8
Q:1/4=220
M:4/4
K:D
z6 {E}FE | DE FG A2 F/A/A | AB AG FE D2 | GB AG FA GF | E2 EF ED CE | DE FG A2 F/A/A | 
AB AG FE D2 | GB AG FA GF | ED CE D2 B,/D/D | DE FG A2 F/A/A | AB AG (3EFE D2 | 
GB AG FA (3FED | E2 EF ED CE | DE FG A2 F/A/A | AB AG FE D2 | GB AG FE DB, | A,B, CE D2 A2 | 
Dd DD d2 [d2F2] | df ed BA Bd | e2 de e2 ef | gf ed cA Bc | df ed ce dc | Bd cB AG F2 | 
GB AG FA GF | ED GF D2 A2 | Dd DD d2 [d2F2] | df ed BA Bd | eB de e2 ef | (3fgf ed cA Bc | 
df ed ce dc | Bd cB AG FD | GB AG FA GF | ED EF D4 | 


